static/logos/chartmogul-wordmark-color.svg

<svg width="100" height="19" viewBox="0 0 100 19" fill="none" xmlns="http://www.w3.org/2000/svg">
<g clip-path="url(#clip0_1_3286)">
<path d="M93.85 8.53783C93.85 9.40835 93.6333 10.0947 93.1833 10.5802C92.7333 11.0657 92.15 11.2833 91.4333 11.2833C90.8 11.2833 90.2667 11.0657 89.8667 10.6137C89.45 10.1617 89.2333 9.60925 89.2333 8.93961V2.94639H86.9333V8.93961C86.9333 10.2956 87.3167 11.4508 88.1 12.2543C88.8833 13.0746 89.8333 13.4764 91.05 13.4764C91.4 13.4764 91.7667 13.4262 92.1 13.3425C92.45 13.242 92.7333 13.1416 92.95 13.0244C93.1667 12.9072 93.4 12.79 93.5833 12.6393C93.6333 12.6059 93.7333 12.5222 93.7667 12.4719L93.8333 12.3715V13.2755H96.1167V2.92964H93.85V8.53783ZM6.73333 11.2499C4.26667 11.2499 2.26667 9.22421 2.26667 6.7633C2.26667 4.28566 4.28333 2.27676 6.73333 2.27676C8.21667 2.27676 9.51667 2.99661 10.3333 4.135L12.3167 2.99661C11.1 1.1886 9.05 0 6.73333 0C3.01667 0 0 3.04684 0 6.7633C0 10.4965 3.03333 13.5266 6.73333 13.5266C9.06667 13.5266 11.1167 12.338 12.3333 10.5467L10.35 9.40837C9.53333 10.5133 8.21667 11.2499 6.73333 11.2499ZM97.7333 0.117188H100V13.3425H97.7333V0.117188ZM59.8667 0.117188L56.15 6.46197L52.4333 0.117188H49.5167V13.3425H51.7833V3.51558L55.3333 9.57577H56.95L60.5333 3.44861V13.3257H62.8L62.8167 0.100446H59.8667V0.117188ZM44.9833 5.23989H48.0333V2.96313H44.9833V0.150667H42.7V9.44184C42.7 11.6851 43.7167 13.3425 46.5333 13.3425H48.0167V11.0657H46.7667C45.1667 11.0657 44.9833 10.2622 44.9833 9.47532V5.23989ZM34.0833 2.96313H31.8167V3.90062C30.9667 3.31468 29.9333 2.96313 28.8333 2.96313C25.9333 2.96313 23.55 5.34034 23.55 8.26998C23.55 11.1829 25.9167 13.5768 28.8333 13.5768C29.9333 13.5768 30.9833 13.2253 31.8167 12.6393V13.3592H34.0833V2.96313ZM28.8167 11.2331C27.1667 11.2331 25.85 9.89384 25.85 8.25324C25.85 6.61264 27.1833 5.27337 28.8167 5.27337C30.4667 5.27337 31.7833 6.61264 31.7833 8.25324C31.7833 9.89384 30.45 11.2331 28.8167 11.2331ZM41.0667 2.94639C40.6167 2.94639 39.2 2.97987 37.9333 3.78343V2.94639H35.6667V13.309H37.9333V7.6673C37.9333 7.01442 38.0833 6.51219 38.3833 6.16064C39.1667 5.23989 40.65 5.17292 40.75 5.17292C40.8667 5.17292 41.0167 5.15618 41.15 5.15618H41.7333V2.94639H41.3333C41.2833 2.94639 41.0833 2.94639 41.0667 2.94639ZM69.05 13.5434C66.15 13.5434 63.7833 11.1661 63.7833 8.25324C63.7833 5.34034 66.15 2.96313 69.05 2.96313C71.95 2.96313 74.3167 5.34034 74.3167 8.25324C74.3167 11.1661 71.95 13.5434 69.05 13.5434ZM69.05 5.29011C67.4333 5.29011 66.1 6.62938 66.1 8.25324C66.1 9.8771 67.4333 11.2164 69.05 11.2164C70.6667 11.2164 72 9.8771 72 8.25324C72.0167 6.61264 70.6833 5.29011 69.05 5.29011ZM83.2167 2.94639V3.88388C82.3667 3.29796 81.35 2.96313 80.25 2.96313C77.35 2.96313 74.9833 5.34034 74.9833 8.25324C74.9833 11.1661 77.35 13.5434 80.25 13.5434C81.35 13.5434 82.3667 13.1918 83.2167 12.6226V12.8235C83.2167 12.9239 83.2 13.0244 83.2 13.0244C83.0833 13.8112 82.7167 14.5143 82.2833 15.0166C81.7167 15.569 81.0167 15.8201 80.2 15.8369H80.15C78.9833 15.8034 77.95 15.2677 77.3 14.4306L75.75 16.088C76.6667 17.3603 78.35 18.1973 80.25 18.1638C81.7167 18.1638 82.9667 17.6281 83.9833 16.5734C84.9167 15.5857 85.4167 14.3804 85.4833 12.9742C85.4833 12.9742 85.5 12.8068 85.5 12.6059V2.97987H83.2167V2.94639ZM80.25 11.2331C78.6333 11.2331 77.3 9.89384 77.3 8.26998C77.3 6.64612 78.6333 5.30685 80.25 5.30685C81.8667 5.30685 83.2 6.64612 83.2 8.26998C83.2 9.89384 81.8667 11.2331 80.25 11.2331ZM17.6667 5.25663H18.1167C18.05 5.25663 17.9667 5.23989 17.9 5.23989C17.8 5.23989 17.75 5.23989 17.6667 5.25663Z" fill="black"/>
<path d="M22.4791 7.38803C22.4791 4.68129 20.6107 2.97703 18.0753 2.97703C17.1579 2.97703 16.2905 3.27778 15.5732 3.76232V0.15332H13.3047V13.3362H15.5732V7.98954C15.5732 7.12071 15.7734 6.45237 16.1904 5.96782C16.5574 5.55012 17.0578 5.29949 17.6917 5.26608C17.7584 5.26608 17.8251 5.24938 17.8918 5.24938C17.9586 5.24938 18.042 5.24936 18.1087 5.26608C18.7259 5.29949 19.2096 5.55012 19.5933 5.96782C19.9768 6.43567 20.177 7.07057 20.2104 7.87258V13.3362H22.4791V7.38803Z" fill="black"/>
</g>
<defs>
<clipPath id="clip0_1_3286">
<rect width="100" height="18.1648" fill="white"/>
</clipPath>
</defs>
</svg>

<svg xmlns="http://www.w3.org/2000/svg" width="336.842" height="64" fill="none" viewBox="0 0 100 19"><g fill="#000" clip-path="url(#a)"><path d="M93.85 8.538c0 .87-.217 1.557-.667 2.042-.45.486-1.033.703-1.75.703-.633 0-1.166-.217-1.566-.67-.417-.451-.634-1.004-.634-1.673V2.946h-2.3V8.94c0 1.356.384 2.51 1.167 3.314.783.82 1.733 1.222 2.95 1.222.35 0 .717-.05 1.05-.134.35-.1.633-.2.85-.318.217-.117.45-.234.633-.385a.873.873 0 0 0 .184-.167l.066-.1v.903h2.284V2.93H93.85v5.608ZM6.733 11.25c-2.466 0-4.466-2.026-4.466-4.487 0-2.477 2.016-4.486 4.466-4.486a4.4 4.4 0 0 1 3.6 1.858l1.984-1.138C11.1 1.189 9.05 0 6.733 0 3.017 0 0 3.047 0 6.763c0 3.733 3.033 6.764 6.733 6.764a6.762 6.762 0 0 0 5.6-2.98L10.35 9.408a4.506 4.506 0 0 1-3.617 1.842Zm91-11.133H100v13.225h-2.267V.117Zm-37.866 0L56.15 6.462 52.433.117h-2.916v13.225h2.266V3.516l3.55 6.06h1.617l3.583-6.127v9.877H62.8L62.817.1h-2.95v.017ZM44.983 5.24h3.05V2.963h-3.05V.151H42.7v9.29c0 2.244 1.017 3.901 3.833 3.901h1.484v-2.276h-1.25c-1.6 0-1.784-.804-1.784-1.59V5.24Zm-10.9-2.277h-2.266v.938a5.26 5.26 0 0 0-2.984-.938c-2.9 0-5.283 2.377-5.283 5.307 0 2.913 2.367 5.307 5.283 5.307 1.1 0 2.15-.352 2.984-.938v.72h2.266V2.963Zm-5.266 8.27a2.97 2.97 0 0 1-2.967-2.98 2.98 2.98 0 0 1 2.967-2.98 2.97 2.97 0 0 1 2.966 2.98 2.98 2.98 0 0 1-2.966 2.98Zm12.25-8.287c-.45 0-1.867.034-3.134.837v-.837h-2.266V13.31h2.266V7.667c0-.653.15-1.155.45-1.506.784-.921 2.267-.988 2.367-.988.117 0 .267-.017.4-.017h.583v-2.21h-.666ZM69.05 13.543c-2.9 0-5.267-2.377-5.267-5.29 0-2.913 2.367-5.29 5.267-5.29 2.9 0 5.267 2.377 5.267 5.29 0 2.913-2.367 5.29-5.267 5.29Zm0-8.253c-1.617 0-2.95 1.34-2.95 2.963 0 1.624 1.333 2.963 2.95 2.963 1.617 0 2.95-1.339 2.95-2.963a2.94 2.94 0 0 0-2.95-2.963Zm14.167-2.344v.938a5.193 5.193 0 0 0-2.967-.92c-2.9 0-5.267 2.376-5.267 5.29 0 2.912 2.367 5.29 5.267 5.29 1.1 0 2.117-.352 2.967-.921v.2c0 .1-.017.201-.017.201a4.012 4.012 0 0 1-.917 1.993c-.566.552-1.266.803-2.083.82h-.05c-1.167-.034-2.2-.57-2.85-1.406l-1.55 1.657c.917 1.272 2.6 2.11 4.5 2.076 1.467 0 2.717-.536 3.733-1.59.934-.988 1.434-2.194 1.5-3.6 0 0 .017-.167.017-.368V2.98h-2.283v-.034Zm-2.967 8.287c-1.617 0-2.95-1.34-2.95-2.963 0-1.624 1.333-2.963 2.95-2.963 1.617 0 2.95 1.34 2.95 2.963 0 1.624-1.333 2.963-2.95 2.963ZM17.667 5.257h.45c-.067 0-.15-.017-.217-.017-.1 0-.15 0-.233.017Z"/><path d="M22.48 7.388c0-2.707-1.87-4.411-4.405-4.411-.917 0-1.784.3-2.502.785V.153h-2.268v13.183h2.268V7.99c0-.87.2-1.538.617-2.022.367-.418.868-.669 1.502-.702.066 0 .133-.017.2-.017s.15 0 .217.017c.617.033 1.1.284 1.484.702.384.468.584 1.103.617 1.905v5.463h2.27V7.388Z"/></g><defs><clipPath id="a"><path fill="#fff" d="M0 0h100v18.165H0z"/></clipPath></defs></svg>
